X: 169
T: Seventh City (reel)
N: 190210
C: BB
R: reel
Q: 1/8=380
M: 4/4
L: 1/8
K: Am
cd|"Am"eAcB AE (3EDE|"Am"Aece Aece|"F"cA (3A^GA "C"=GECE|"Dm"AFAc "G"B2 cd|
"Am"eAcB AE (3EDE|"Am"Aece Aece|"Dm7"afdc "G"BGBd|"F"cA"G"BG "Am"A2 :|
AB|"C"cG (3G^FG EGGA|"C"cdeg "Am"aged|"C"cG (3G^FG "Em"EDEG|"Am"ABcB A3 B|
"C"cG (3G^FG EGGA|"C"cBcd "Em"edeg|"Am"a2 ba "G"gedB|"F"cA"G"BG "Am"A2 :|
eg|"Am"ae (3efe aebe|"Am"ae (3efe "G"gedg|"Am"ae (3efe "Em"gedB|"Am"AGAc "G"B2 eg|
"Am"ae (3efe aebe|"Am"ae (3efe "Em"gedB|"C"cdeg "Am7"aged|"F"cA"G"BG "Am"A2 :|
%%%%%%%%%%%%%%%%%%%%%%%%%%%%%%%%%%%%%%%%%%%
